X:1
T: Folklife Reel
C:Gordy Euler
R:Reel
Q: 232
K:Am
M:4/4
L:1/8
|:A,B, CD EA, FA,|EA, FA, EF ED|CD EF GE CD|ED EF E4|
A,B, CD EA, FA,|EA, FA, EF ED|CD EG FE DF|ED CB, A,4:|
|:EA FA E2 AB|cB AF EF ED|CD EF Gc GB|cB Ac B4|
EA FA E2 AB|cd ea ef ed|ce ge fe df|eB cB A4:|
